X:810
T:Eileen Og
K:Am
M:2/2
L:1/8
P:A
"Am"A2A>B c2c>d|e>fe>d c>AA2|"G"G2G>A B2B>c|d>ed>c B>GG2|
"Am"A2A>B c2c>d|e>fe>d c>Ac>d|"Em"e2e>f "E7"e>dc>B|"Am"c2"Em"A2 "Am"A4:|
P:B
|:"F"a4 "G"a4|"C"g>ec>d e4|"Em"e>BB>B B2d2|"Am"c>Bc>d e4|
"F"a4 "G"a4|"C"g>ec>d e4|"Em"e>de>f "E7"e>dc>B|"Am"c2"Em"A2 "Am"A4:|

